X:1
T:모차르트 변주곡 K.265
T:모차르트 변주곡 K.265 
T:모차르트 
C:모차르트
%%score { ( 1 3 ) | ( 2 4 ) }
L:1/8
M:2/4
K:C
V:1 treble nm="Piano" snm="Pno."
V:3 treble 
V:2 bass 
V:4 bass 
V:1
"^TEMA."!mf! c2 c2 | g2 g2 | a2 a2 | g2 g2 | f2 f2 | e2 e2 | d2 (d>e | c4) :: g2 g2 | f2 f2 | %10
 e2 e2 | d2 d2 | g2 g2 | f2 f2 | ((e2{fed} e>)f | e2 d2) | c2 c2 | g2 g2 | a2 a2 | g2 g2 | f2 f2 | %21
 e2 e2 | (d2({fe)d} d>e | c4) ::"^VAR.I""_legato" (d/c/B/c/ B/c/B/c/ | a/g/^f/g/ f/g/f/g/ | %26
 ^g/a/c'/b/ d'/c'/b/a/ | a/g/e'/d'/ c'/b/a/g/- | g/f/d'/c'/ b/a/g/f/- | f/e/c'/b/ a/g/f/e/ | %30
 da gB |1 c2) z2 ::2 c2 z2 |: (a/g/^f/g/ f/g/a/g/ | g/f/e/f/ e/f/g/f/ | f/e/^d/e/ d/e/f/e/ | %36
 e/d/^c/d/ c/d/e/d/ | a/g/^f/g/ e'/c'/a/g/ | g/f/e/f/ d'/b/g/f/ | f/e/^d/e/ c'/g/f/e/) | (g>e d2) | %41
 (d/c/B/c/ B/c/B/c/ | a/g/^f/g/ f/g/f/g/ | ^g/a/c'/b/ d'/c'/b/a/ | a/g/e'/d'/ c'/b/a/g/- | %45
 g/f/d'/c'/ b/a/g/f/- | f/e/c'/b/ a/g/f/e/ | da gB | c2) z2 ::"^VAR.II" c2 c2 | [cg]2 [cg]2- | %51
 [cga-]2 [f-a]2 | [fg-]2 [e-g]2 | [ef]2 [Gdf]2 | [Gde]2 [Ace]2 | [Acd]2 [GB-d-]>[FBd] | %56
 [EGc]2 z2 :: [cg]2 [cg]2 | [cf]2 [Bf]2 | [ce]>d [ce]>f | ([B-e]2 [Bd]2) | [cg]2 [cg]2 | %62
 [cf]2 [Bf]2 | [Ge]>d [Ge]>f | [G-e]2 [Gd]2 | [EGc]2 (Tc3/2B/4c/4 | g2) [cg]2- | [cga]2 [c-f-a]2 | %68
 [cfg]2 [_Be-g]2 | [Ae^f]2 [_Ad-=f]2 | [Ade]2 [Ace]2 | [Acd]2 [GB-d-]>[GBd] | [EGc]2 z2 :: %73
"^VAR.3" (3(CEG (3ceg | (3c'gf (9:4:5(1:1:3e/f/e/dc) | (3(a^ga (3c'ba) | (3(a^f).g (3.g.c'.e' | %77
 (3(e'f).f (3.f.b.d' | (3(d'e).e (3.e.a.c' | (3(c'd).a (3(ag).B | c2 z2 :: (3(g^f).g (3(e'c').g | %82
 (3(ge).f (3(d'b).f | (3(f^d).e (3(c'g).e | (3(e^c).d (3(fd).B | %85
 (9:4:5(1:1:3(g/a/g/^f).g (3(e'a).g | (3(ge).f (3(d'g).f | (3(f^d).e (3(c'a).e | (g>e d2) | %89
 (3(CEG (3ceg | (3c'gf (9:4:5(1:1:3e/f/e/dc) | (3(a^ga (3c'ba) | (3(a^f).g (3.g.c'.e' | %93
 (3(e'f).f (3.f.b.d' | (3(d'e).e (3.e.a.c' | (3(c'd).a (3(ag).B | c2 z2 ::"^VAR.IV" [EGc]2 c2 | %98
 [ceg]2 g2 | (g2 f2) | (f2 e2) | [cef]2 [Gdf]2 | [Gde]2 [Ace]2 | [Acd]2 [FBd]2 | [EGc]2 z2 :: %105
 [eg]2 [eg]2 | f4 | e2- e>a | (e2 (3d)ef | g2 g2 | f4 | e2- e>a | (e2 (3d)fd | c2 c2 | g2 g2 | %115
 (g2 f2) | (f2 e2) | [ef]2 [df]2 | [de]2 [ce]2 | [cd]2 [Bd]2 | [Gc]2 z2 ::"^VAR.V." c2 z c | %122
 g2 z g | a2 z a | g2 z [eg] | z [ef] z [df] | z [de] z [ce] | z [cd] z [Bd] | c2 z2 :: g2 z (g | %130
 ^f2) z (=f | e2) z (_e | d2) z G | g2 z (g/^f/ | =f2) z (f/e/ | _e2) z (^f/g/ | d2) z (f/d/ | %137
 c2) z (c/e/ | g2) z (g/e/ | a2) z (a/c'/ | g2) z (e/g/) | z (g/^f/) z (d/=f/) | %142
 z (f/e/) z (g/e/) | z (^c/d/) z (f/d/) | z (B/c/) z2 ::"^VAR.VI" [EGc] z [EGc] z | %146
 [ceg] z [ceg] z | [cga] z [cfa] z | [cfg] z [ceg] z | [Aef] z [Adf] z | [Gde] z [Ace] z | %151
 [FAd] z [DFd] z | [EGc]2 z2 :: G,/^F,/G,/F,/ G,/F,/G,/F,/ | G,/^F,/G,/F,/ G,/A,/B,/A,/ | %155
 C/B,/C/D/ E/D/E/^F/ | G/^F/G/F/ G/F/G/F/ | G/^F/G/F/ G/F/G/F/ | G/^F/G/F/ G/A/B/G/ | %159
 c/B/c/d/ e/d/e/^f/ | g/a/f/g/ e/f/d/e/ | c z [EGc] z | [ceg] z [ceg] z | [cga] z [cfa] z | %164
 [cfg] z [ceg] z | [Aef] z [Gdf] z | [Gde] z [Ace] z | [FAd] z [DFB] z | [EGc]2 z2 :: %169
"^VAR.VII" (CD/E/ F/G/A/B/ | c/d/e/f/ g/a/b/c'/ | b/a/^g/a/ d'/c'/b/a/) | %172
 (a/g/^f/g/) z/ (g/e'/g/) | z/ (f/e'/f/) z/ (f/d'/f/) | z/ (e/d'/e/) z/ (e/c'/e/) | %175
 z/ (d/c'/d/) z/ (d/b/d/) | [egc']2 z2 :: (g/c'/e'/d'/ c'/b/a/g/ | f/e/d/c/ B/A/G/F/ | %179
 E)(.e .f.^f) | (g>e) d z | (g/c'/e'/d'/ c'/b/a/g/ | f/e/d/c/ B/A/G/F/ | E)(.e .f.^f) | g>e d z | %185
 (CD/E/ F/G/A/B/ | c/d/e/f/ g/a/b/c'/ | b/a/^g/a/ d'/c'/b/a/) | (a/g/^f/g/) z/ (g/e'/g/) | %189
 z/ (f/e'/f/) z/ (f/d'/f/) | z/ (e/d'/e/) z/ (e/c'/e/) | z/ (d/c'/d/) z/ (d/b/d/) | [egc']2 z2 :: %193
[K:Eb]"^VAR.VIII""^Minore." .c.d .e.f | g2 g2- | g2 f2- | f2 e2- | e2 d2- | [Gd]2 c2- | c2 =B2 | %200
 c2 z2 :: G4 | (^f2 =f2) | =e2 (_e2- | e2 d2-) | d2 c2- | [=Ac]2 =B2 | .c.c .d.e | (gf) .e.d | %209
 .c.d .e.f | (^fg/) z/ (fg/) z/ | a4 | g4 | [G-f]4 | [Ge]4 | d4 | c2 z2 :: %217
[K:C]"^VAR.IX.""^Maggiore." .c2 .c2 | g2 g2- | g2 f2- | f2 e2- | e2 d2- | d2 c z | (cB AB) | %224
 c2 z2 :: .g2 .g2 | .f2 .f2 | .e2 (e>f) | (e2 d2) | c2 c2- | cB AB | .c.c .d.e | .f.g .a.b | %233
 .c'2 .c'2 | .g2 .g2 | .a2 .a2 | .g2 (e>g) | .f2 (d>f) | .e2 .c2 | (cB cd) | [Ec]2 z2 :: %241
"^VAR.X." z/ (E/c/E/) z/ (E/G/E/) | z/ (E/c/E/) z/ (E/c/E/) | z/ (F/c/F/) z/ (F/c/F/) | %244
 z/ (E/c/E/) z/ (_B/[eg]/B/) | z/ (A/[d^f]/A/) z/ (_A/[d=f]/A/) | z/ (G/[ce]/G/) z/ (A/[c_e]/A/) | %247
 z/ (G/[cd]/G/) z/ (F/[Bd]/F/) | [Ec]2 z2 :: z/ (E/c/E/) z/ (E/c/E/) | z/ (D/c/D/) z/ (D/B/D/) | %251
 z/ (C/c/C/) z/ (G/[c_e]/G/) | z/ (A/[cd]/A/) z/ (_A/[Bd]/A/) | z/ (G/[ce]/G/) z/ (G/[^cg]/G/) | %254
 z/ (A/[d^f]/A/) z/ (_A/[d=f]/A/) | z/ (G/[ce]/G/) z/ (A/[c_e]/A/) | (d/c/B/A/ G/F/E/D/) | %257
 z/ (E/c/E/) z/ (E/G/E/) | z/ (E/c/E/) z/ (E/c/E/) | z/ (F/c/F/) z/ (F/c/F/) | %260
 z/ (E/c/E/) z/ (_B/[eg]/B/) | z/ (A/[d^f]/A/) z/ (_A/[df]/A/) | z/ (G/[ce]/G/) z/ (A/[c_e]/A/) | %263
 z/ (G/[cd]/G/) z/ (F/[Bd]/F/) | [Ec]2 z2 ::"^VAR.XI."[Q:1/4=71]"^Adagio" (c>G) (e>c) | g g2 g | %267
 [cga] [cfa]2 [cfa] | [cfg] [ceg]2 [ceg] | (g/f/)f z/ (e'/4d'/4)(c'/4b/4)(a/4g/4) | %270
 (f/>^d/e) z/ (a/4g/4)(f/4e/4)(=d/4c/4) | (B/>A/)(g/4f/4e/4d/4 c).B | ([FG-Bd]2 [EGc]) z :: %273
 (g3/2a/4b/4 c'/).b/.a/.g/ | (g/f/4) z/4 (e/d/4) z/4 (cB/) z/ | (!turn!c>d) (!turn!e>f) | %276
 (e3/2f/4e/4 d/)(.e/.f/.^f/) | (g3/2a/4b/4 c'/4d'/4e'/4d'/4c'/4b/4a/4g/4) | %278
 (g/4f/4)(f'/4e'/4)(e'/4d'/4)(d'/4c'/4) (c'/4b/4)(b/4a/4)(a/4g/4)(g/4f/4) | %279
 (e/>c'/)!fermata!c'- c'/4(d'/4e'/4d'/<c'/)^f/4 | (a2 g) (3!fermata!z/4 (a/4g/4(3f/4e/4d/4) | %281
 (c>G) (e>c) | g g2 g | [cga] [cfa]2 [cfa] | [cfg] [ceg]2 [ceg] | %285
 (g/f/)f z/ (e'/4d'/4)(c'/4b/4)(a/4g/4) | (f/>^d/e) z/ (a/4g/4)(f/4e/4)(=d/4c/4) | %287
 (B/>A/)(g/4f/4e/4d/4 c).B | ([FG-Bd]2 [EGc]) z :: %289
[M:3/4]"^VAR.XII"[Q:1/4=120]"^Allegro." [EGc]2 z2 (Tc3/2B/4c/4 | g2) z2 (Tc3/2B/4c/4) | %291
 [cga]2 [cfa]2 [cfa]2 | [ceg]2 z2 (Tg3/2^f/4g/4 | ^f2) z2 (T=f3/2e/4f/4 | e2) z2 (Tc3/2B/4c/4 | %295
 B2 f2) [DFB]2 | [Ec]2 z2 z2 :: (a/g/^f/g/ f/g/f/g/ f/g/f/g/) | (g/=f/e/f/ e/f/e/f/ e/f/e/f/) | %299
 (f/e/^d/e/ d/e/d/e/ d/e/d/e/) | (e/=d/^c/d/ c/d/c/d/ c/d/c/d/) | (a/g/^f/g/ f/g/f/g/ e'/g/e'/g/) | %302
 (g/=f/e/f/ e/f/e/f/ d'/f/d'/f/) | (f/e/^d/e/ d/e/d/e/ c'/e/c'/e/) | %304
 (e/=d/^c/d/ c/d/c/d/ g/B/g/B/) | [EG=c]2 z2 (Tc3/2B/4c/4 | g2) z2 (Tc3/2B/4c/4) | %307
 [cga]2 [cfa]2 [cfa]2 | [ceg]2 z2 (Tg3/2^f/4g/4 | ^f2) z2 (T=f3/2e/4f/4 | e2) z2 (Tc3/2B/4c/4 | %311
 d2 f2) [DFB]2 |1 [Ec]2 z2 z2 :|2 [EGc]2 z2 (Tg3/2^f/4g/4 || ^f2) z2 (T=f3/2e/4f/4 | %315
 e2) z2 (Tc3/2B/4c/4 | d2) z2 [DFB]2 | (c/G/A/B/ c/d/e/f/ g/a/b/c'/ | g/a/f/g/ e/f/d/e/ c/d/B/d/ | %319
 c/G/A/B/ c/d/e/f/ g/a/b/c'/ | g/a/f/g/ e/f/d/e/ c/d/B/d/) | c2 z/ (C/B,/C/) z/ (E/^D/E/) | %322
 z/ (G/^F/G/) z/ (E/^D/E/) z/ (G/F/G/) | z/ (c/B/c/) z/ (e/^d/e/) z/ (g/^f/g/) | [cegc']2 z4 |] %325
V:2
 C,2 C2 | E2 C2 | F2 C2 | E2 C2 | D2 B,2 | C2 A,2 | F,2 G,2 | C,4 :: E2 G,2 | D2 G,2 | C2 G,2 | %11
 B,2 G,2 | E2 G,2 | D2 G,2 | C2 (C>D | [G,-C]2 [G,B,]2) | C,2 C2 | E2 C2 | F2 C2 | E2 C2 | D2 B,2 | %21
 C2 A,2 | F,2 G,2 | C,4 :: C,2 C2 | E2 C2 | F2 C2 | E2 z3/2 ^C/ | D2 z3/2 B,/ | C2 z3/2 A,/ | %30
 F,2 G,2 |1 CG, E,G, ::2 C2 C,2 |: E2 G,2 | D2 G,2 | C2 G,2 | F2 G,2 | [G,E]4 | [G,D]4 | %39
 [G,C]2 z3/2 C/ | [G,-E]>[G,C] B,2 | C,2 C2 | E2 C2 | F2 C2 | E2 z3/2 ^C/ | D2 z3/2 B,/ | %46
 C2 z3/2 A,/ | F,2 G,2 | C2 C,2 :: C,/C/B,/C/ D/C/B,/C/ | E,/C/B,/C/ D/C/B,/C/ | %51
 F,/C/B,/C/ D/C/B,/C/ | A,,/C/B,/C/ D/C/B,/C/ | A,,/A,/^G,/A,/ B,,/B,/^A,/B,/ | %54
 C,/C/B,/C/ A,,/A,/^G,/A,/ | F,,/F,/E,/F,/ G,,/G,/^F,/G,/ | C,,2 C,2 :: G,/E/^D/E/ F/E/D/E/ | %58
 G,/D/^C/D/ E/D/C/D/ | G,/G/^F/G/ A/G/F/G/ | G,/F/E/F/ G/F/E/F/ | G,/E/^D/E/ F/E/D/E/ | %62
 G,/D/^C/D/ E/D/C/D/ | G,/C/B,/C/ D/C/B,/C/ | G,/B,/^A,/B,/ C/B,/A,/B,/ | C,/C/B,/C/ D/C/B,/C/ | %66
 E,/C/B,/C/ D/C/B,/C/ | F,/C/B,/C/ D/C/B,/C/ | C,/C/B,/C/ ^C,/^C/^B,/C/ | %69
 D,/D/^C/D/ B,,/B,/^A,/B,/ | C,/C/B,/C/ A,,/A,/^G,/A,/ | F,,/F,/E,/F,/ G,,/G,/^F,/G,/ | C,,2 C,2 :: %73
 C,,2 C,2 | [E,C-]2 [C,C]2 | [F,C-]2 [C,C]2 | [E,C-]2 [C,C]2 | [A,C]2 [B,D]2 | [CE]2 [A,C]2 | %79
 [F,A,]2 [G,-B,F-]>[G,DF] | (3[CE]G,E, C,2 :: [G,-E]2 [G,C]2 | [G,-D]2 [G,B,]2 | [G,-C]2 [G,E]2 | %84
 [G,F]4 | [G,-E]2 [G,^C]2 | [G,-D]2 [G,B,]2 | [G,C]2 [^F,A,C]2 | ([G,-E]>[G,-C]) [G,B,]2 | %89
 C,,2 C,2 | [E,C-]2 [C,C]2 | [F,C-]2 [C,C]2 | [E,C-]2 [C,C]2 | [A,C]2 [B,D]2 | [CE]2 [A,C]2 | %95
 [F,A,]2 [G,-B,F-]>[G,DF] | (3[CE]G,E, C,2 :: (3C,,E,,G,, (3C,E,C, | (3C,,E,,G,, (3C,E,C, | %99
 (3C,,F,,A,, (3C,A,C, | (3C,,E,,G,, (3C,E,C, | (3.A,,,(^G,,A,,) (3.B,,,(^A,,B,,) | %102
 (3.C,,(B,,C,) (3.A,,,(^G,,A,,) | (3.F,,,(E,,F,,) (3.E,,,(^F,,G,,) | (3C,,E,,G,, C,2 :: %105
 (3G,,C,E, (3G,CE | (3G^FG (3G,A,B, | (3CB,C (3C,E,F, | (3G,^F,G, G,,2 | (3G,,C,E, (3G,CE | %110
 (3G^FG (3G,A,B, | (3CB,C (3C,E,F, | (3G,^F,G, G,,2 | (3C,,E,,G,, (3C,E,C, | (3C,,E,,G,, (3C,E,C, | %115
 (3C,,F,,A,, (3C,F,C, | (3C,,E,,G,, (3C,E,C, | (3.A,,,(^G,,A,,) (3.B,,,(^A,,B,,) | %118
 (3.C,,(B,,C,) (3A,,,(B,,C,) | (3.F,,,(E,,F,,) (3.G,,,(^F,,G,,) | (3C,,E,,G,, C,2 :: z C E2 | %122
 z E C2 | z F C2 | z E C2 | D z B, z | C z A, z | F, z G, z | z C C,2 :: z (E G,2) | z (D G,2) | %131
 z (C G,2) | z (B, G,2) | z (E G,2) | z (D G,2) | z (C G,2) | z (B, G,2) | z (C,/E,/ G,2) | %138
 z (C/E/ G2) | z (E/A/ C2) | z (E/G/ C2) | D z B, z | C z E, z | F, z G, z | C z C, z :: %145
 C,/B,,/C,/B,,/ C,/B,,/C,/B,,/ | C,/B,,/C,/B,,/ C,/D,/E,/C,/ | F,/E,/F,/E,/ F,/G,/A,/B,/ | %148
 C/B,/C/B,/ C/D/E/C/ | D/^C/D/=C/ B,/A,/B,/G,/ | C/B,/C/B,/ A,/^G,/A,/=G,/ | %151
 F,/E,/F,/D,/ G,/^F,/G,/G,,/ | C,/G,,/E,,/G,,/ C,,2 :: [G,,G,]2 [G,,G,]2 | [G,,D,F,]2 [G,,D,F,]2 | %155
 [G,,C,E,]2 [G,,C,E,]2 | [G,,B,,D,]2 [G,,B,,D,]2 | [G,,E,G,]2 [G,,E,G,]2 | [G,,D,F,]2 [G,,D,F,]2 | %159
 [G,,C,E,]2 [G,,C,E,]2 | [G,,B,,D,]2 z2 | C,/B,,/C,/B,,/ C,/B,,/C,/B,,/ | %162
 C,/B,,/C,/B,,/ C,/D,/E,/C,/ | F,/E,/F,/E,/ F,/G,/A,/B,/ | C/B,/C/B,/ C/D/E/C/ | %165
 D/^C/D/=C/ B,/A,/B,/G,/ | C/B,/C/B,/ A,/^G,/A,/=G,/ | F,/E,/F,/D,/ G,/^F,/G,/G,,/ | %168
 C,/G,,/E,,/G,,/ C,,2 :: [C,,C,]4 | (E,2 C,2) | (F,2 C,2) | E,2 [C,C]2 | [A,,A,]2 [B,,B,]2 | %174
 [^G,,^G,]2 [A,,A,]2 | [F,,F,]2 [G,,G,]2 | [C,,C,]2 z2 :: [G,E]4 | [G,D]4 | [G,C]4 | [G,B,]4 | %181
 [G,E]4 | [G,D]4 | [G,C]4 | [G,B,]4 | [C,,C,]4 | (E,2 C,2) | (F,2 C,2) | E,2 [C,C]2 | %189
 [A,,A,]2 [B,,B,]2 | [^G,,^G,]2 [A,,A,]2 | [F,,F,]2 [G,,G,]2 | [C,,C,]2 z2 ::[K:Eb] z4 | z4 | %195
 .F.G .A.B | c2 c2 |[K:bass] .G,.=A, .=B,.G, | .C.G, ._A,.E, | .F,.D, .G,.G,, | C,2 C,,2 :: %201
 [G,,G,]4- | [G,,G,]4 | G,4 | (=A,2 =B,2) | C[G,,G,] [_A,,_A,][G,,G,] | [^F,,^F,]2 [=F,,=F,]2 | %207
 [=E,,=E,]2 [_E,,_E,]2 | [D,,D,]2 [G,,,G,,]2 | [C,,C,]2 z2 | z4 |[K:treble] .F.G .A.B | %212
 (Bc/) z/ (Bc/) z/ |[K:bass] .G,.=A, .=B,.G, | .C.G, ._A,.E, | .F,.D, .G,.G,, | C,2 C,,2 :: %217
[K:C] z4 | z4 |[K:treble] .F2 .F2 | .c2 .c2 |[K:bass] .G,2 .G,2 | .C2 .C2 | [G,,,G,,]2 [G,,,G,,]2 | %224
 C,,2 z2 :: z4 | z4 |[K:treble] .[Gc]2 .[Gc]2 | .[FB]2 .[FB]2 |[K:bass] .[G,E]2 .[G,E]2 | %230
 .[F,D]2 .[F,D]2 | .[G,,E,]2 .[G,,E,]2 | .[F,,D,]2 .[F,,D,]2 | .[E,,C,]2 z2 | z4 | z4 | z4 | %237
 .G2 .G2 | .C2 .C2 | [G,,,G,,]2 [G,,,G,,]2 | [C,,C,]2 z2 :: [C,,C,]2[K:treble] c2 | g2 g2 | a2 a2 | %244
 g2[K:bass] [^C,^C]2 | [D,D]2 [B,,B,]2 | [C,C]2 [^F,,^F,]2 | [G,,G,]2 G,,2 | C,2 C,,2 :: %249
 [G,,,G,,]2[K:treble] g2 | ^f2 =f2 | e2[K:bass] [G,,G,]2 | [^F,,^F,]2 [=F,,=F,]2 | %253
 [E,,E,]2 [_E,,_E,]2 | [D,,D,]2 [B,,,B,,]2 | [C,,C,]2 [^F,,,^F,,]2 | [G,,,G,,]2 z2 | %257
 [C,,C,]2[K:treble] c2 | g2 g2 | a2 a2 | g2[K:bass] [^C,^C]2 | [D,D]2 [B,,B,]2 | %262
 [C,C]2 [^F,,^F,]2 | [G,,G,]2 G,,2 | C,2 C,,2 :: z4 | (C>G,) (E>C) | (F,>C,) (A,>F,) | %268
 (C,>G,,) (E,>C,) | [A,CF] z [B,DG] z | [CEG] z [E,G,C] z | F,2 G,2 | CG, C, z :: %273
 G,/[CE]/[CE]/[CE]/ G,/[CE]/[CE]/[CE]/ | G,/[DF]/[DF]/[DF]/ G,/[DF]/[DF]/[DF]/ | %275
 [EG]>[B,G] [B,G]>[F,D] | [G,-C]2 [G,B,] z | G,/[CE]/[CE]/[CE]/ G,/[CE]/[CE]/[CE]/ | %278
 G,/[DF]/[DF]/[DF]/ G,/[DF]/[DF]/[DF]/ | [CE] !fermata![A,C^F]2 z | (([G,C]2 [G,B,])) !fermata!z | %281
 z4 | (C>G,) (E>C) | (F,>C,) (A,>F,) | (C,>G,,) (E,>C,) | [A,CF] z [B,DG] z | [CEG] z [E,G,C] z | %287
 F,2 G,2 | CG, C, z ::[M:3/4] (C,,/C,/B,,/C,/ D,/C,/B,,/C,/ D,/C,/B,,/C,/) | %290
 (E,,/C,/B,,/C,/ D,/C,/B,,/C,/ D,/C,/B,,/C,/) | (F,,/C,/B,,/C,/ D,/C,/B,,/C,/ D,/C,/B,,/C,/) | %292
 (C,,/C,/B,,/C,/ D,/C,/B,,/C,/) (^C,,/^C,/B,,/C,/) | %293
 (D,,/D,/^C,/D,/ E,/D,/C,/D,/) (B,,,/B,,/A,,/B,,/) | %294
 (=C,,/=C,/B,,/C,/ D,/C,/B,,/C,/) (A,,,/A,,/^G,,/A,,/) | %295
 (F,,,/F,,/E,,/F,,/ G,,/F,,/E,,/F,,/) (G,,,/G,,/^F,,/G,,/) | %296
 (C,,/D,,/E,,/F,,/ G,,/A,,/B,,/C,/ C,,2) :: (G,/E/^D/E/ D/E/D/E/ D/E/D/E/) | %298
 (G,/D/^C/D/ C/D/C/D/ C/D/C/D/) | (G,/=C/B,/C/ B,/C/B,/C/ B,/C/B,/C/) | %300
 (G,/F/E/F/ E/F/E/F/ E/F/E/F/) | (G,/E/^D/E/ D/E/D/E/ G,/E/G,/E/) | %302
 (G,/D/^C/D/ C/D/C/D/ G,/D/G,/D/) | (G,/C/B,/C/ B,/C/B,/C/ G,/C/G,/C/) | %304
 (G,/F/E/F/ E/F/E/F/ G,/F/G,/F/) | (C,/C/B,/C/ D/C/B,/C/ D/C/B,/C/) | %306
 (E,/C/B,/C/ D/C/B,/C/ D/C/B,/C/) | (F,/C/B,/C/ D/C/B,/C/ D/C/B,/C/) | %308
 (A,,/C/B,/C/ D/C/B,/C/) ^C,/^C/B,/C/ | (D,/D/^C/D/ E/D/C/D/) (B,,/B,/A,/B,/) | %310
 (C,/C/B,/C/ D/C/B,/C/) (A,,/A,/^G,/A,/) | (F,,/F,/E,/F,/ =G,/F,/E,/F,/) (F,,/G,/^F,/G,/) |1 %312
 (C,/D,/E,/F,/ G,/A,/B,/C/ C,2) :|2 (E,,/E,/D,/E,/ F,/E,/D,/E,/) (_E,,/_E,/D,/E,/) || %314
 (D,,/D,/^C,/D,/ E,/D,/C,/D,/) (B,,,/B,,/A,,/B,,/) | %315
 (C,,/C,/B,,/C,/ D,/C,/B,,/C,/) (A,,,/A,,/^G,,/A,,/) | %316
 (F,,,/F,,/E,,/F,,/ G,,/F,,/E,,/F,,/) (G,,,/G,,/^F,,/G,,/) | [C,,E,,C,]2 z2 z2 | G,6 | %319
 [CE]2 z2 z2 | G,6 | [CE]2 [C,,C,]2 [E,,E,]2 | [G,,G,]2 [E,,E,]2 [G,,G,]2 | %323
 [C,,C,]2 [E,,E,]2 [G,,G,]2 | [C,E,G,C]2 z4 |] %325
V:3
 x4 | x4 | x4 | x4 | x4 | x4 | x4 | x4 :: x4 | x4 | x4 | x4 | x4 | x4 | x4 | x4 | x4 | x4 | x4 | %19
 x4 | x4 | x4 | x4 | x4 :: x4 | x4 | x4 | x4 | x4 | x4 | x4 |1 x4 ::2 x4 |: x4 | x4 | x4 | x4 | %37
 x4 | x4 | x4 | x4 | x4 | x4 | x4 | x4 | x4 | x4 | x4 | x4 :: x4 | x4 | x4 | x4 | x4 | x4 | x4 | %56
 x4 :: x4 | x4 | x4 | x4 | x4 | x4 | x4 | x4 | x4 | x4 | x4 | x4 | x4 | x4 | x4 | x4 :: x4 | x4 | %75
 x4 | x4 | x4 | x4 | x4 | x4 :: x4 | x4 | x4 | x4 | x4 | x4 | x4 | x4 | x4 | x4 | x4 | x4 | x4 | %94
 x4 | x4 | x4 :: x4 | x4 | [ca]4 | [cg]4 | x4 | x4 | x4 | x4 :: x4 | (e2 d2) | (d2 c2) | (c2 B2) | %109
 e2 e2 | (e2 d2) | (d2 c2) | (c2 B2) | [EG]2 z2 | [ce]2 z2 | [ca]4 | [cg]4 | c2 G2 | G2 A2 | %119
 A2 F2 | E2 z2 :: x4 | x4 | x4 | x4 | x4 | x4 | x4 | x4 :: x4 | x4 | x4 | x4 | x4 | x4 | x4 | x4 | %137
 x4 | x4 | x4 | x4 | x4 | x4 | x4 | x4 :: x4 | x4 | x4 | x4 | x4 | x4 | x4 | x4 :: x4 | x4 | x4 | %156
 x4 | x4 | x4 | x4 | x4 | x4 | x4 | x4 | x4 | x4 | x4 | x4 | x4 :: x4 | x4 | x4 | x4 | x4 | x4 | %175
 x4 | x4 :: x4 | x4 | x4 | x4 | x4 | x4 | x4 | x4 | x4 | x4 | x4 | x4 | x4 | x4 | x4 | x4 :: %193
[K:Eb] x4 | x4 | a4 | g4 | [Gf]4- | [Gf]2 z2 | d4 | x4 :: z (g ag) | (A2 =B2) | c(G _AG) | %204
 (^F2 =F2) | =E2 _E2- | E2 _A2 | G4 | G4 | x4 | x4 | g2 =f2- | f2 e2- | e2 d2- | d2 c2- | c2 =B2 | %216
 c2 z2 ::[K:C] x4 | x4 | a4 | g4 | f4 | e3 c | [DF]4 | E2 z2 :: x4 | x4 | x4 | x4 | G4 | G4 | G4 | %232
 G2 z2 | x4 | x4 | f2 f2 | c2 c2 | B2 B2 | c2 [EG]2 | [DF]4 | x4 :: x4 | x4 | x4 | x4 | x4 | x4 | %247
 x4 | x4 :: x4 | x4 | x4 | x4 | x4 | x4 | x4 | B z z2 | x4 | x4 | x4 | x4 | x4 | x4 | x4 | x4 :: %265
 x4 | x4 | x4 | x4 | x4 | x4 | x4 | x4 :: x4 | x4 | x4 | x4 | x4 | x4 | x4 | x4 | x4 | x4 | x4 | %284
 x4 | x4 | x4 | x4 | x4 ::[M:3/4] x6 | x6 | x6 | x6 | x6 | x6 | x6 | x6 :: x6 | x6 | x6 | x6 | x6 | %302
 x6 | x6 | x6 | x6 | x6 | x6 | x6 | x6 | x6 | x6 |1 x6 :|2 x6 || x6 | x6 | x6 | x6 | x6 | x6 | x6 | %321
 x6 | x6 | x6 | x6 |] %325
V:4
 x4 | x4 | x4 | x4 | x4 | x4 | x4 | x4 :: x4 | x4 | x4 | x4 | x4 | x4 | x4 | x4 | x4 | x4 | x4 | %19
 x4 | x4 | x4 | x4 | x4 :: x4 | x4 | x4 | x4 | x4 | x4 | x4 |1 x4 ::2 x4 |: x4 | x4 | x4 | x4 | %37
 x4 | x4 | x4 | x4 | x4 | x4 | x4 | x4 | x4 | x4 | x4 | x4 :: x4 | x4 | x4 | x4 | x4 | x4 | x4 | %56
 x4 :: x4 | x4 | x4 | x4 | x4 | x4 | x4 | x4 | x4 | x4 | x4 | x4 | x4 | x4 | x4 | x4 :: x4 | x4 | %75
 x4 | x4 | x4 | x4 | x4 | x4 :: x4 | x4 | x4 | x4 | x4 | x4 | x4 | x4 | x4 | x4 | x4 | x4 | x4 | %94
 x4 | x4 | x4 :: x4 | x4 | x4 | x4 | x4 | x4 | x4 | x4 :: x4 | x4 | x4 | x4 | x4 | x4 | x4 | x4 | %113
 x4 | x4 | x4 | x4 | x4 | x4 | x4 | x4 :: x4 | x4 | x4 | x4 | x4 | x4 | x4 | x4 :: x4 | x4 | x4 | %132
 x4 | x4 | x4 | x4 | x4 | x4 | x4 | x4 | x4 | x4 | x4 | x4 | x4 :: x4 | x4 | x4 | x4 | x4 | x4 | %151
 x4 | x4 :: x4 | x4 | x4 | x4 | x4 | x4 | x4 | x4 | x4 | x4 | x4 | x4 | x4 | x4 | x4 | x4 :: x4 | %170
 x4 | x4 | x4 | x4 | x4 | x4 | x4 :: x4 | x4 | x4 | x4 | x4 | x4 | x4 | x4 | x4 | x4 | x4 | x4 | %189
 x4 | x4 | x4 | x4 ::[K:Eb] x4 | x4 | x4 | x4 |[K:bass] x4 | x4 | x4 | x4 :: x4 | x4 | x4 | G,4 | %205
 x4 | x4 | x4 | x4 | x4 | x4 |[K:treble] x4 | x4 |[K:bass] x4 | x4 | x4 | x4 ::[K:C] x4 | x4 | %219
[K:treble] x4 | x4 |[K:bass] x4 | x4 | x4 | x4 :: x4 | x4 |[K:treble] x4 | x4 |[K:bass] x4 | x4 | %231
 x4 | x4 | x4 | x4 | x4 | x4 | x4 | x4 | x4 | x4 :: x2[K:treble] x2 | x4 | x4 | x2[K:bass] x2 | %245
 x4 | x4 | x4 | x4 :: x2[K:treble] x2 | x4 | x2[K:bass] x2 | x4 | x4 | x4 | x4 | x4 | %257
 x2[K:treble] x2 | x4 | x4 | x2[K:bass] x2 | x4 | x4 | x4 | x4 :: x4 | x4 | x4 | x4 | x4 | x4 | %271
 D2 GF | x4 :: x4 | x4 | x4 | x4 | x4 | x4 | x4 | x4 | x4 | x4 | x4 | x4 | x4 | x4 | D2 ED | x4 :: %289
[M:3/4] x6 | x6 | x6 | x6 | x6 | x6 | x6 | x6 :: x6 | x6 | x6 | x6 | x6 | x6 | x6 | x6 | x6 | x6 | %307
 x6 | x6 | x6 | x6 | x6 |1 x6 :|2 x6 || x6 | x6 | x6 | x6 | ED CF DC | x6 | ED CF DC | x6 | x6 | %323
 x6 | x6 |] %325

